resources/icons/wallets/exodus.svg

<svg viewBox="0 0 214 214" fill="none" xmlns="http://www.w3.org/2000/svg">
<rect width="214" height="214" rx="8" fill="#E5E5FF"/>
<path d="M134.297 107.25L174.71 147.6H160.397C157.871 147.6 155.767 146.759 154.083 145.078L116.616 107.25L154.083 69.8422C155.767 68.1609 158.292 67.3203 160.397 67.3203H174.71L134.297 107.25ZM60.6275 69.8422C58.9436 68.1609 56.4178 67.3203 54.313 67.3203H40L80.413 107.25L40 147.6H54.313C56.8388 147.6 58.9436 146.759 60.6275 145.078L98.0938 107.67C98.0938 107.25 60.6275 69.8422 60.6275 69.8422ZM107.355 116.497L69.8888 153.905C68.2049 155.586 67.363 158.108 67.363 160.209V174.5L107.776 134.15L148.189 174.5V160.209C148.189 157.688 147.347 155.586 145.663 153.905L107.355 116.497ZM107.355 98.0031L144.821 60.5953C146.505 58.9141 147.347 56.3922 147.347 54.2906V40L107.355 80.35L66.942 40V54.2906C66.942 56.8125 67.784 58.9141 69.4678 60.5953L107.355 98.0031Z" fill="url(#paint0_linear_2345_52471)"/>
<defs>
<linearGradient id="paint0_linear_2345_52471" x1="39.9585" y1="107.25" x2="174.77" y2="107.25" gradientUnits="userSpaceOnUse">
<stop stop-color="#00BFFF"/>
<stop offset="1" stop-color="#6619FF"/>
</linearGradient>
</defs>
</svg>

<svg viewBox="0 0 214 214" fill="none" xmlns="http://www.w3.org/2000/svg"><rect width="214" height="214" rx="8" fill="#E5E5FF"/><path d="m134.297 107.25 40.413 40.35h-14.313c-2.526 0-4.63-.841-6.314-2.522l-37.467-37.828 37.467-37.408c1.684-1.681 4.209-2.522 6.314-2.522h14.313l-40.413 39.93Zm-73.67-37.408c-1.683-1.681-4.21-2.522-6.314-2.522H40l40.413 39.93L40 147.6h14.313c2.526 0 4.63-.841 6.314-2.522l37.467-37.408c0-.42-37.466-37.828-37.466-37.828Zm46.728 46.655-37.466 37.408c-1.684 1.681-2.526 4.203-2.526 6.304V174.5l40.413-40.35 40.413 40.35v-14.291c0-2.521-.842-4.623-2.526-6.304l-38.308-37.408Zm0-18.494 37.466-37.408c1.684-1.68 2.526-4.203 2.526-6.304V40l-39.992 40.35L66.942 40v14.29c0 2.523.842 4.624 2.526 6.305l37.887 37.408Z" fill="url(#a)"/><defs><linearGradient id="a" x1="39.959" y1="107.25" x2="174.77" y2="107.25" gradientUnits="userSpaceOnUse"><stop stop-color="#00BFFF"/><stop offset="1" stop-color="#6619FF"/></linearGradient></defs></svg>
